img/nextdotjs-wordmark-dark 1.svg

<svg width="158" height="32" viewBox="0 0 158 32" fill="none" xmlns="http://www.w3.org/2000/svg">
<g clip-path="url(#clip0_98_1289)">
<path d="M105.034 0.0132446H132.555V5.08002H121.637V31.7356H116.178V5.08002H105.034V0.0132446Z" fill="#FAD9C4"/>
<path d="M59.7722 0.0132446V5.08002H37.7124V13.2309H55.4529V18.2977H37.7124V26.6689H59.7722V31.7356H32.2538V5.08002H32.2515V0.0132446H59.7722Z" fill="#FAD9C4"/>
<path d="M73.5143 0.0264893H66.3706L91.9578 31.7489H99.1223L86.3271 15.8986L99.1019 0.0506914L91.9578 0.0617034L82.7505 11.4679L73.5143 0.0264893Z" fill="#FAD9C4"/>
<path d="M80.8448 22.6859L77.2673 18.2491L66.3501 31.773H73.5142L80.8448 22.6859Z" fill="#FAD9C4"/>
<path fill-rule="evenodd" clip-rule="evenodd" d="M32.4449 31.7356L6.82331 0H0V31.7224H5.45866V6.78064L25.5875 31.7356H32.4449Z" fill="#FAD9C4"/>
<path d="M133.781 31.5418C133.382 31.5418 133.042 31.4037 132.757 31.1274C132.472 30.8511 132.331 30.5167 132.335 30.1204C132.331 29.7351 132.472 29.4042 132.757 29.1279C133.042 28.8517 133.382 28.7135 133.781 28.7135C134.166 28.7135 134.503 28.8517 134.787 29.1279C135.076 29.4042 135.22 29.7351 135.224 30.1204C135.22 30.3821 135.153 30.6221 135.02 30.8365C134.883 31.0547 134.71 31.2256 134.491 31.3492C134.277 31.4764 134.04 31.5418 133.781 31.5418Z" fill="#FAD9C4"/>
<path d="M143.098 18.1781H145.517V27.4738C145.513 28.3281 145.328 29.0589 144.966 29.6733C144.6 30.2876 144.093 30.7565 143.442 31.0874C142.795 31.4145 142.037 31.5818 141.175 31.5818C140.387 31.5818 139.681 31.44 139.052 31.1637C138.423 30.8875 137.924 30.473 137.558 29.9277C137.188 29.3824 137.006 28.7026 137.006 27.8883H139.429C139.433 28.2445 139.514 28.5535 139.669 28.8116C139.825 29.0697 140.039 29.266 140.313 29.4042C140.59 29.5423 140.909 29.6114 141.267 29.6114C141.656 29.6114 141.989 29.5314 142.258 29.3678C142.528 29.2079 142.736 28.9679 142.88 28.648C143.02 28.3318 143.095 27.9391 143.098 27.4738V18.1781Z" fill="#FAD9C4"/>
<path d="M155.47 21.8135C155.411 21.25 155.152 20.8102 154.701 20.4975C154.246 20.1812 153.658 20.0249 152.937 20.0249C152.43 20.0249 151.994 20.1013 151.631 20.2503C151.269 20.403 150.988 20.6066 150.795 20.8647C150.603 21.1228 150.507 21.4173 150.499 21.7481C150.499 22.0244 150.566 22.2643 150.695 22.4643C150.825 22.6678 150.998 22.8387 151.224 22.9769C151.446 23.1186 151.694 23.235 151.964 23.3295C152.238 23.424 152.511 23.504 152.785 23.5694L154.046 23.8784C154.553 23.9948 155.045 24.1511 155.515 24.351C155.984 24.5474 156.41 24.7982 156.783 25.0999C157.157 25.4017 157.453 25.7652 157.671 26.1906C157.889 26.6159 158 27.1139 158 27.6883C158 28.4626 157.8 29.1425 157.397 29.7314C156.994 30.3167 156.413 30.7748 155.651 31.1056C154.893 31.4328 153.976 31.6 152.896 31.6C151.853 31.6 150.943 31.4401 150.178 31.1202C149.408 30.8039 148.809 30.3385 148.376 29.7278C147.944 29.117 147.711 28.3718 147.677 27.4956H150.074C150.107 27.9537 150.255 28.3354 150.507 28.6444C150.762 28.9498 151.095 29.1752 151.502 29.3279C151.912 29.4769 152.371 29.5533 152.878 29.5533C153.407 29.5533 153.873 29.4733 154.276 29.317C154.675 29.1606 154.989 28.9426 155.215 28.659C155.445 28.379 155.559 28.0482 155.563 27.6702C155.559 27.3248 155.455 27.0376 155.256 26.8122C155.052 26.5868 154.771 26.3978 154.412 26.2451C154.05 26.0924 153.628 25.9542 153.147 25.8343L151.616 25.4489C150.51 25.169 149.634 24.7437 148.994 24.1729C148.351 23.6022 148.032 22.846 148.032 21.8972C148.032 21.1192 148.247 20.4358 148.68 19.8504C149.108 19.2652 149.697 18.8107 150.44 18.4872C151.187 18.16 152.031 18 152.97 18C153.924 18 154.76 18.16 155.481 18.4872C156.202 18.8107 156.769 19.2615 157.179 19.8359C157.59 20.4103 157.804 21.0683 157.815 21.8135H155.47Z" fill="#FAD9C4"/>
</g>
<defs>
<clipPath id="clip0_98_1289">
<rect width="158" height="32" fill="white"/>
</clipPath>
</defs>
</svg>

<svg xmlns="http://www.w3.org/2000/svg" width="158" height="32" fill="none"><g fill="#FAD9C4" clip-path="url(#a)"><path d="M105.034.013h27.521V5.08h-10.918v26.656h-5.459V5.08h-11.144zM59.772.013V5.08h-22.06v8.15h17.74v5.068h-17.74v8.37h22.06v5.068H32.254V5.08h-.002V.013zM73.514.026h-7.143L91.958 31.75h7.164l-12.795-15.85L99.102.05l-7.144.01-9.207 11.407zM80.845 22.686l-3.578-4.437L66.35 31.773h7.164z"/><path fill-rule="evenodd" d="M32.445 31.736 6.823 0H0v31.722h5.459V6.781l20.128 24.955z" clip-rule="evenodd"/><path d="M133.781 31.542q-.598 0-1.024-.415a1.33 1.33 0 0 1-.422-1.007 1.31 1.31 0 0 1 .422-.992 1.42 1.42 0 0 1 1.024-.415q.579 0 1.006.415.432.414.437.992a1.4 1.4 0 0 1-.204.716 1.5 1.5 0 0 1-.529.513 1.37 1.37 0 0 1-.71.193M143.098 18.178h2.419v9.296q-.007 1.28-.551 2.2a3.66 3.66 0 0 1-1.524 1.413q-.972.493-2.267.495c-.788 0-1.494-.142-2.123-.418a3.4 3.4 0 0 1-1.494-1.236q-.553-.818-.552-2.04h2.423q.007.535.24.924.234.386.644.592.416.207.954.207.585 0 .991-.243.406-.24.622-.72.212-.475.218-1.174zM155.47 21.814a1.75 1.75 0 0 0-.769-1.317q-.683-.473-1.764-.472-.761 0-1.306.225-.545.229-.836.615a1.5 1.5 0 0 0-.296.883q.001.415.196.716c.13.204.303.375.529.513q.334.212.74.352.41.143.821.24l1.261.31q.762.173 1.469.472c.469.196.895.447 1.268.749q.561.453.888 1.09.328.638.329 1.498 0 1.161-.603 2.043-.604.879-1.746 1.375-1.136.492-2.755.494c-1.043 0-1.953-.16-2.718-.48q-1.154-.476-1.802-1.392-.648-.917-.699-2.232h2.397c.033.458.181.84.433 1.148.255.306.588.531.995.684q.615.224 1.376.225.793-.001 1.398-.236.6-.233.939-.658.344-.42.348-.989-.007-.518-.307-.858-.306-.338-.844-.567a9 9 0 0 0-1.265-.41l-1.531-.386q-1.66-.42-2.622-1.276-.963-.854-.962-2.276 0-1.167.648-2.047.644-.878 1.76-1.363 1.121-.489 2.53-.487 1.43-.002 2.511.487 1.082.487 1.698 1.349.618.86.636 1.978z"/></g><defs><clipPath id="a"><path fill="#fff" d="M0 0h158v32H0z"/></clipPath></defs></svg>
